lib/core/plugins/img/email/folder-inbox.svg

<svg xmlns="http://www.w3.org/2000/svg" width="14" height="16" viewBox="0 0 14 16"><path fill-rule="evenodd" d="M14 9l-1.13-7.14c-.08-.48-.5-.86-1-.86H2.13c-.5 0-.92.38-1 .86L0 9v5c0 .55.45 1 1 1h12c.55 0 1-.45 1-1V9zm-3.28.55l-.44.89c-.17.34-.52.56-.91.56H4.61c-.38 0-.72-.22-.89-.55l-.44-.91c-.17-.33-.52-.55-.89-.55H1l1-7h10l1 7h-1.38c-.39 0-.73.22-.91.55l.01.01z"/></svg>

<svg width="14px" height="16px" viewBox="0 0 14 16" version="1.1" xmlns="http://www.w3.org/2000/svg" xmlns:xlink="http://www.w3.org/1999/xlink">
    <g id="Octicons" stroke="none" stroke-width="1" fill="none" fill-rule="evenodd">
        <g id="inbox" fill="#000000">
            <path d="M14,9 L12.87,1.86 C12.79,1.38 12.37,1 11.87,1 L2.13,1 C1.63,1 1.21,1.38 1.13,1.86 L0,9 L0,14 C0,14.55 0.45,15 1,15 L13,15 C13.55,15 14,14.55 14,14 L14,9 L14,9 Z M10.72,9.55 L10.28,10.44 C10.11,10.78 9.76,11 9.37,11 L4.61,11 C4.23,11 3.89,10.78 3.72,10.45 L3.28,9.54 C3.11,9.21 2.76,8.99 2.39,8.99 L1,8.99 L2,1.99 L12,1.99 L13,8.99 L11.62,8.99 C11.23,8.99 10.89,9.21 10.71,9.54 L10.72,9.55 Z" id="Shape"></path>
        </g>
    </g>
</svg>
